src/assets/crossPlatform.svg

<svg xmlns="http://www.w3.org/2000/svg" width="76" height="64" fill="none" viewBox="0 0 76 64"><path fill="#2ECC82" d="M47.2137 0.305922C47.2137 2.72584 47.196 5.06939 47.2137 7.41589C47.2492 11.3336 49.1955 13.2895 53.1295 13.3159C56.1376 13.3394 59.1458 13.3482 62.151 13.3159C65.9045 13.2689 67.8567 11.3071 67.9099 7.56567C67.9425 5.26616 67.9277 2.96666 67.9395 0.66715C67.9483 0.5674 67.9682 0.468915 67.9987 0.373471C72.1723 -0.992136 75.7602 1.51294 75.7631 5.83883C75.775 23.068 75.775 40.2972 75.7631 57.5263C75.7631 61.1474 73.7666 63.2354 70.1432 63.256C61.7645 63.3049 53.3838 63.3049 45.0012 63.256C41.3719 63.2354 39.3813 61.1474 39.3813 57.5263C39.3813 40.493 39.4522 23.4596 39.325 6.42619C39.2718 2.22071 41.8185 -0.695523 47.2137 0.305922ZM61.5446 35.9204C61.8404 35.7882 62.0445 35.6737 62.2693 35.5856C65.3721 34.3786 67.0995 31.8294 66.8481 28.8163C66.7243 27.418 66.1593 26.0942 65.2337 25.0332C64.308 23.9723 63.0688 23.2284 61.6925 22.9074C58.6429 22.2643 55.8773 23.6093 54.2298 26.411C54.0641 26.6404 53.852 26.8329 53.607 26.976C53.3619 27.1192 53.0895 27.2098 52.8071 27.2422C51.3104 27.3538 49.7989 27.2833 48.3259 27.2833V40.396H61.5446V35.9204Z"/><path fill="#2ECC82" d="M34.8558 6.92828V42.7747H0.000244141V41.2682C0.000244141 32.3129 0.000244141 23.3596 0.000244141 14.4083C0.000244141 9.50091 2.6091 6.87543 7.55171 6.86368C16.1769 6.84606 24.802 6.84606 33.4272 6.86368C33.865 6.86074 34.3027 6.90185 34.8558 6.92828ZM23.7017 32.4578C28.1385 31.0804 30.5048 28.0027 30.2859 24.0204C30.0907 20.3112 27.4552 17.3333 23.6839 16.561C19.9984 15.8062 16.5851 17.718 14.6122 21.5535C14.4775 21.748 14.302 21.9111 14.0978 22.0318C13.8935 22.1525 13.6654 22.2278 13.429 22.2525C11.9678 22.3376 10.4978 22.2848 8.99219 22.2848V36.8542H23.7165L23.7017 32.4578Z"/><path fill="#2ECC82" d="M34.8204 56.0696H7.51328C2.68307 56.0696 -0.00860761 53.3942 0.000266011 48.6308C0.000266011 48.2431 0.000266011 47.8525 0.000266011 47.3591H34.8204V56.0696Z"/><path fill="#2ECC82" d="M63.4822 0.214844C63.4822 2.8139 63.4822 5.25144 63.4822 7.68898C63.4822 8.55239 63.1183 8.9283 62.2458 8.92242C59.0907 8.90872 55.9435 8.90872 52.8042 8.92242C52.0086 8.92242 51.6211 8.57882 51.6211 7.78002C51.6211 5.29549 51.6211 2.81391 51.6211 0.217783L63.4822 0.214844Z"/><path fill="#2ECC82" d="M62.4291 29.289C62.4235 28.8505 62.2856 28.4236 62.0333 28.0637C61.781 27.7037 61.4257 27.4271 61.0135 27.2695C60.6013 27.1119 60.1509 27.0807 59.7206 27.1798C59.2903 27.2788 58.8998 27.5037 58.5995 27.8253C58.2991 28.1469 58.1028 28.5505 58.0358 28.984C57.9688 29.4175 58.0342 29.861 58.2235 30.2573C58.4129 30.6535 58.7175 30.9843 59.0981 31.2069C59.4787 31.4296 59.9177 31.5338 60.3586 31.5063C60.9248 31.4723 61.456 31.2229 61.8417 30.8099C62.2274 30.3969 62.4377 29.8521 62.4291 29.289ZM57.3534 36.0231C56.2235 34.631 55.2296 33.4005 54.2239 32.1788C54.082 32.0055 53.9104 31.7853 53.7152 31.7353C53.4064 31.6929 53.0936 31.687 52.7834 31.7177V36.1024C53.9666 36.1024 55.0551 36.1024 56.1347 36.1024C56.4276 36.0906 56.7204 36.0436 57.3534 36.0142V36.0231Z"/><path fill="#2ECC82" d="M62.429 29.2893C62.4451 29.7208 62.3326 30.1474 62.1056 30.5157C61.8786 30.884 61.5472 31.1776 61.1529 31.3597C60.7586 31.5418 60.3189 31.6043 59.889 31.5394C59.459 31.4746 59.058 31.2851 58.736 30.9949C58.4139 30.7047 58.1854 30.3266 58.0788 29.908C57.9723 29.4894 57.9925 29.0489 58.137 28.6416C58.2815 28.2344 58.5439 27.8785 58.8911 27.6186C59.2384 27.3588 59.6552 27.2064 60.0893 27.1807C60.3837 27.1608 60.6791 27.2001 60.9578 27.2963C61.2365 27.3925 61.4928 27.5436 61.7113 27.7405C61.9297 27.9374 62.1059 28.1761 62.2293 28.4422C62.3526 28.7083 62.4205 28.9965 62.429 29.2893Z"/><path fill="#2ECC82" d="M57.3534 36.0143C56.7204 36.0554 56.4276 36.0906 56.1347 36.0906C55.0551 36.0906 53.9725 36.0906 52.7834 36.0906V31.7089C53.0936 31.6782 53.4064 31.6841 53.7152 31.7266C53.9104 31.7765 54.082 31.9967 54.2239 32.17C55.2296 33.4005 56.2235 34.6222 57.3534 36.0143Z"/><path fill="#2ECC82" d="M22.2226 28.1526C21.4902 28.1613 20.7717 27.9535 20.1586 27.5556C19.5455 27.1577 19.0654 26.5877 18.7795 25.9181C18.4937 25.2486 18.4149 24.5097 18.5533 23.7955C18.6916 23.0813 19.0408 22.4242 19.5564 21.9077C20.0721 21.3911 20.7308 21.0386 21.4489 20.8949C22.1669 20.7512 22.9117 20.8228 23.5887 21.1007C24.2656 21.3786 24.8439 21.8501 25.2501 22.4553C25.6563 23.0605 25.8719 23.772 25.8696 24.4992C25.8681 25.4621 25.4844 26.3856 24.8017 27.0695C24.119 27.7534 23.1923 28.1426 22.2226 28.1526Z"/><path fill="#2ECC82" d="M19.2472 32.5018H13.3936V26.5372C13.855 26.781 14.3903 26.8808 14.488 27.1422C15.3576 29.4212 16.9874 30.96 19.1141 32.0408C19.1703 32.0701 19.1673 32.2258 19.2472 32.5018Z"/><rect width="24.065" height="22.282" x="7.13" y="15.158" fill="#2ECC82"/><rect width="24.956" height="23.174" x="44.565" y="19.615" fill="#2ECC82"/></svg>

<svg xmlns="http://www.w3.org/2000/svg" width="76" height="64" fill="none"><path fill="#2ECC82" d="M47.214.306c0 2.42-.018 4.763 0 7.11.035 3.918 1.982 5.873 5.916 5.9 3.008.023 6.016.032 9.021 0 3.753-.047 5.706-2.009 5.759-5.75.032-2.3.018-4.6.03-6.899.008-.1.028-.198.059-.294 4.173-1.365 7.761 1.14 7.764 5.466.012 17.229.012 34.458 0 51.687 0 3.621-1.996 5.71-5.62 5.73-8.379.049-16.76.049-25.142 0-3.63-.02-5.62-2.109-5.62-5.73 0-17.033.071-34.066-.056-51.1-.053-4.205 2.493-7.122 7.889-6.12Zm14.33 35.614c.296-.132.5-.246.725-.334 3.103-1.207 4.83-3.757 4.58-6.77a6.646 6.646 0 0 0-1.615-3.783 6.726 6.726 0 0 0-3.541-2.126c-3.05-.643-5.816.702-7.463 3.504a2.033 2.033 0 0 1-1.423.831c-1.497.112-3.008.041-4.481.041v13.113h13.219V35.92ZM34.856 6.928v35.847H0V14.408c0-4.907 2.61-7.533 7.552-7.544 8.625-.018 17.25-.018 25.875 0 .438-.003.876.038 1.429.064Zm-11.154 25.53c4.436-1.378 6.803-4.455 6.584-8.438-.195-3.709-2.83-6.687-6.602-7.459-3.686-.755-7.099 1.157-9.072 4.992a1.641 1.641 0 0 1-1.183.7c-1.461.085-2.931.032-4.437.032v14.57h14.724l-.014-4.397ZM34.82 56.07H7.513c-4.83 0-7.522-2.676-7.513-7.44v-1.27h34.82v8.71Z"/><path fill="#2ECC82" d="M63.482.215v7.474c0 .863-.364 1.24-1.236 1.233a1142.97 1142.97 0 0 0-9.442 0c-.795 0-1.183-.343-1.183-1.142V.218L63.482.215ZM62.43 29.289a2.183 2.183 0 0 0-.397-1.225 2.224 2.224 0 0 0-3.434-.238 2.187 2.187 0 0 0-.375 2.431 2.2 2.2 0 0 0 .874.95 2.222 2.222 0 0 0 2.744-.397 2.18 2.18 0 0 0 .587-1.521Zm-5.077 6.734c-1.13-1.392-2.123-2.623-3.13-3.844-.141-.174-.313-.394-.508-.444a3.974 3.974 0 0 0-.932-.017v4.384h3.352c.293-.011.585-.058 1.218-.088v.01Z"/><path fill="#2ECC82" d="M62.429 29.29c.016.43-.096.857-.323 1.226a2.204 2.204 0 0 1-.953.844 2.224 2.224 0 0 1-2.417-.365 2.18 2.18 0 0 1 .155-3.376 2.22 2.22 0 0 1 1.198-.438 2.206 2.206 0 0 1 1.622.56 2.18 2.18 0 0 1 .718 1.548Zm-5.076 6.724c-.633.041-.925.077-1.218.077h-3.352v-4.382c.31-.03.623-.025.932.018.195.05.367.27.509.443 1.006 1.23 2 2.452 3.13 3.844Zm-35.13-7.861a3.722 3.722 0 0 1-2.064-.597 3.672 3.672 0 0 1-1.38-1.638 3.64 3.64 0 0 1 .777-4.01 3.716 3.716 0 0 1 4.032-.807c.678.278 1.256.75 1.662 1.354a3.646 3.646 0 0 1-.448 4.615 3.698 3.698 0 0 1-2.58 1.083Zm-2.976 4.349h-5.853v-5.965c.461.244.996.344 1.094.605.87 2.28 2.5 3.818 4.626 4.899.056.03.053.185.133.46Z"/><path fill="#2ECC82" d="M7.13 15.158h24.065V37.44H7.13zm37.435 4.457h24.956v23.174H44.565z"/></svg>
